X: 1
T: The Sea Wife (voice 1)  v.1
C: music: Gordon Bok 1987
C: poem: Rudyard Kipling
%D: 1987
F: http://ancients.sudburymuster.org/mus/med/pdf/seawifewalkerC0.pdf
Z: 2020 John Chambers <jc:trillian.mit.edu>
M: 2/4
L: 1/16
K: Am
A2 |\
A2e2 e2de | c2B2 A2BA | G2d2 d2e2 | d6 e2 |\
e2a2 a2ga | bag2 e2ed | c2A2 G2B2 | A4 z2BA |
G2d2 d2cB | c2B2 A2ce | e2e2 e2c2 | B6 cB |\
A2G2 E2DE | G2A2 G2cB | AG3  E2D2 | E6 :|


